**kern	**dynam	**kern	**dynam	**kern	**dynam	**kern	**dynam	**mxhm
*part4	*part4	*part3	*part3	*part2	*part2	*part1	*part1	*part1
*staff4	*	*staff3	*	*staff2	*	*staff1	*	*
*I"Cello	*	*I"Viola	*	*I"2nd Violin	*	*I"1st Violin	*	*
*clefF4	*	*clefC3	*	*clefG2	*	*clefG2	*	*
*k[b-e-a-d-g-c-f-]	*	*k[b-e-a-d-g-c-f-]	*	*k[b-e-a-d-g-c-f-]	*	*k[b-e-a-d-g-c-f-]	*	*
*a-:	*	*a-:	*	*a-:	*	*a-:	*	*
*M2/2	*	*M2/2	*	*M2/2	*	*M2/2	*	*
*met(c|)	*	*met(c|)	*	*met(c|)	*	*met(c|)	*	*
=1	=1	=1	=1	=1	=1	=1	=1	=1
!	!	!	!	!	!	!LO:TX:a:B:t=Presto	!	!
4AA-'	pp	2r	pp	(2.c-	pp	(4e-	pp	i
4A-'	.	.	.	.	.	8d-L	.	.
.	.	.	.	.	.	8e-J)	.	.
4r	.	[2A-	.	.	.	4f-'	.	iv7
4DD-'	.	.	.	8d-L	.	4r	.	.
.	.	.	.	8c-J)	.	.	.	.
=2	=2	=2	=2	=2	=2	=2	=2	=2
4G-'	.	(2A-]	.	(2.B-	.	(4d-	.	VII(9)
4GG-'	.	.	.	.	.	8c-L	.	.
.	.	.	.	.	.	8d-J)	.	.
4r	.	[2G-)	.	.	.	4e-'	.	III7
4CC-'	.	.	.	8c-L	.	4r	.	.
.	.	.	.	8B-J)	.	.	.	.
=3	=3	=3	=3	=3	=3	=3	=3	=3
4FF-	.	(2G-]	.	(2.A-	.	(4c-	.	VI(9)
4F-	.	.	.	.	.	8B-L	.	.
.	.	.	.	.	.	8c-J)	.	.
4FF-	.	4F-')	.	.	.	4d-'	.	iv6
4FF-	.	4D-'	.	8B-L	.	4d-'	.	.
.	.	.	.	8A-J)	.	.	.	.
=4	=4	=4	=4	=4	=4	=4	=4	=4
4EE-	.	4BB-	.	4G	.	4e-	.	V\\
4r	.	4r	.	4r	.	4r	.	.
2r	.	2r	.	2r	.	2r	.	.
=5	=5	=5	=5	=5	=5	=5	=5	=5
4AA-	.	2r	.	(2.c-	.	(4e-	.	i
4A-	.	.	.	.	.	8d-L	.	.
.	.	.	.	.	.	8e-J	.	.
4r	.	[2A-	.	.	.	4f-')	.	iv7
4DD-	.	.	.	8d-L	.	4r	.	.
.	.	.	.	8c-J)	.	.	.	.
=6	=6	=6	=6	=6	=6	=6	=6	=6
4G-	.	(2A-]	.	(2.B-	.	4d-	.	VII(9)
4GG-	.	.	.	.	.	8c-L	.	.
.	.	.	.	.	.	8d-J	.	.
4r	.	4G-)	.	.	.	4e-'	.	III7
4CC-	.	[4E-	.	8c-L	.	4r	.	.
.	.	.	.	8B-J)	.	.	.	.
=7	=7	=7	=7	=7	=7	=7	=7	=7
4FF-	.	4E-']	.	4A-'	.	4c-	.	VIM7
4FF-	.	4D-'	.	4A-'	.	8B-L	.	iv65
.	.	.	.	.	.	8c-J	.	.
4EE-	.	4BB-'	.	4G'	.	4d-'	.	V7
4EE-	.	4E-'	.	4G'	.	4B-'	.	V
=8	=8	=8	=8	=8	=8	=8	=8	=8
4AA-	.	4E-'	.	4A-'	.	4A-'	.	i\\
4r	.	4r	.	4r	.	4r	.	.
2r	.	2r	.	2r	.	2r	.	.
=9:|!|:	=9:|!|:	=9:|!|:	=9:|!|:	=9:|!|:	=9:|!|:	=9:|!|:	=9:|!|:	=9:|!|:
4GG-	<	([2g-	<	(2e-	< <	4cc-	<	III.V[I6
4G-	.	.	.	.	.	8b-L	.	.
.	.	.	.	.	.	8cc-J	.	.
4r	[ >	4g-]	[ >	4f-)	[ >	4dd-'	[ >	V2
4G-	]]	4dd-)	]]	4r	]]	4r	]]	.
=10	=10	=10	=10	=10	=10	=10	=10	=10
4GG-	<	([2g-	<	(2e-	] <	(4cc-	<	I6
4G-	.	.	.	.	.	4gg-)	.	.
4r	[ >	4g-]	[ >	4d-	[ >	4ff-'	[ >	V43
4G-	]]	4dd-)	]]	4f-)	]]	4r	]]	.
=11	=11	=11	=11	=11	=11	=11	=11	=11
4GG-	<	([2g-	<	(2e-	<	(4cc-	<	I6
4G-	.	.	.	.	.	8b-L	.	.
.	.	.	.	.	.	8cc-J)	.	.
4r	[ >	4g-]	[ >	4f-)	[ >	4dd-'	[ >	V2
4G-	]]	4dd-)	]]	4r	]]	4r	]]	.
=12	=12	=12	=12	=12	=12	=12	=12	=12
4GG-	<	([2g-	<	(2e-	<	(4cc-	<	I6
4G-	.	.	.	.	.	4gg-)	.	.
4G-	[ >	4g-]	[ >	4d-	[ >	4ff-'	[ >	V43
4GG-	]]	4dd-)	]]	4f-)	]]	4r	]]	.
=13	=13	=13	=13	=13	=13	=13	=13	=13
!LO:TX:b:i:t=cresc.	!	!LO:TX:b:i:t=cresc.	!	!LO:TX:b:i:t=cresc.	!	!LO:TX:b:i:t=cresc.	!	!
4AA-	.	(2c-	.	(2e-	.	(4a-	.	i.i[i6
4A-	.	.	.	.	.	8gL	.	.
.	.	.	.	.	.	8a-J)	.	.
4r	.	4d-)	.	4f-)	.	4b--X'	.	.bII6
4A-	.	4r	.	4r	.	4r	.	.
=14	=14	=14	=14	=14	=14	=14	=14	=14
4AA-	.	(2c-	.	(2e-	.	(4a-	.	i6
4A-	.	.	.	.	.	8gL	.	.
.	.	.	.	.	.	8a-J)	.	.
4r	.	4d-)	.	4f-)	.	4b-'	.	iio6
4A-	.	4r	.	4r	.	4r	.	.
=15	=15	=15	=15	=15	=15	=15	=15	=15
!	!	!	!	!	!LO:DY:a	!	!	!
4AA-	f	2c-	f	(2e-	f f	(4a-	.	i6]
4A-	.	.	.	.	.	8gL	.	.
.	.	.	.	.	.	8a-J)	.	.
4D-	.	4F-'	.	4f-')	.	4b--X'	.	.bII6
4D-	.	4F-'	.	4d-'	.	4b--'	.	.
=16	=16	=16	=16	=16	=16	=16	=16	=16
4E-'	.	4E-	.	(4c-	.	(4a-	.	V(64)
4E-'	.	4e-	.	4B-)	.	4g)	.	V
4AA-	.	4e-	.	4c-'	.	4a-'	.	i\\
4r	.	4r	.	4r	.	4r	.	.
=17:|!|:	=17:|!|:	=17:|!|:	=17:|!|:	=17:|!|:	=17:|!|:	=17:|!|:	=17:|!|:	=17:|!|:
*k[b-e-a-d-]	*	*k[b-e-a-d-]	*	*k[b-e-a-d-]	*	*k[b-e-a-d-]	*	*
*f:	*	*f:	*	*f:	*	*f:	*	*
*M6/4	*	*M6/4	*	*M6/4	*	*M6/4	*	*
!	!	!	!	!	!LO:DY:a	!LO:TX:a:B:t=L'istesso tempo	!	!
2r	.	2r	.	2r	f	4c'	.	I
.	.	.	.	.	.	4e-'	.	.
4r	.	4r	.	4r	.	4a-'	.	.
.	.	.	.	.	.	16qqb-/	sf	I6
4c	f	4e-	f	4e-	f	4a-	.	.
4B-	.	4d-	.	4e-	.	4g	.	V43
4A-	.	4c	.	4e-	.	4a-	.	I
=18	=18	=18	=18	=18	=18	=18	=18	=18
2r	.	2r	.	2r	.	4e-	.	V
.	.	.	.	.	.	4g	.	.
4r	.	4r	.	4r	.	4b-	.	.
.	.	.	.	.	.	16qqcc/	sf	V[V6
4E-	.	4G	.	4e-	.	4b-	.	.
4E-	.	4F	.	4e-	.	4a	.	V7/ii
4E-	.	4G	.	4e-	.	4b-	.	V6]
=19	=19	=19	=19	=19	=19	=19	=19	=19
2r	.	2r	.	2r	.	4e-	.	I
.	.	.	.	.	.	4a-X	.	.
4r	.	4r	.	4r	.	4cc	.	.
.	.	.	.	.	.	16qqdd-/	sf	.
4AA-	.	4E-	.	4c	.	4cc	.	.
4GG	.	4E-	.	4B-	.	4b-	.	V6
4FF	.	4E-	.	4A-	.	4cc	.	vi7
=20	=20	=20	=20	=20	=20	=20	=20	=20
2r	.	2r	.	2r	.	4g	.	V
.	.	.	.	.	.	4b-	.	.
4r	.	4r	.	4r	.	4ee-	.	.
.	.	.	.	.	.	16qqff/	sf	V[V6
4EE-	.	4G	.	4B-	.	4ee-	.	.
4EE-	.	4G	.	4B-	.	4dd	.	.
4EE-	.	4G	.	4B-	.	4ee-	.	V6]
=21	=21	=21	=21	=21	=21	=21	=21	=21
2r	.	2r	.	2r	.	4cc	.	I
.	.	.	.	.	.	4ee-	.	.
4r	.	4r	.	4r	.	4aa-	.	.
.	.	.	.	.	.	16qqbb-/	sf	I6
4c	.	4e-	.	4ee-	.	4aa-	.	.
4B-	.	4e-	.	4dd-	.	4gg	.	V43
4A-	.	4e-	.	4cc	.	4aa-	.	I
=22	=22	=22	=22	=22	=22	=22	=22	=22
2r	.	2r	.	2r	.	4ee-	.	V
.	.	.	.	.	.	4gg	.	.
4r	.	4r	.	4r	.	4bb-	.	.
.	.	.	.	.	.	16qqccc/	sf	V6
4G	.	4e-	.	4b-	.	4bb-	.	.
4F	.	4e-	.	4ee-	.	4aa	.	V7/ii
4E-	.	4e-	.	4ee-	.	4bb-	.	V
=23	=23	=23	=23	=23	=23	=23	=23	=23
2r	.	2r	.	2r	.	4bb-	.	.
.	.	.	.	.	.	4ccc	.	.
4r	.	4r	.	4r	.	4ddd-	.	.
4E-	.	4e-	.	4b-	.	4eee-	.	.
4E-	.	4e-	.	4b-	.	4fff	.	.
4E-	.	4e-	.	4b-	.	4ggg	.	.
=24	=24	=24	=24	=24	=24	=24	=24	=24
4AA-	p	4e-	p	4cc	p	4aaa-	.	I\\
4r	.	4r	.	4r	.	4r	.	.
4r	.	4r	.	4r	.	4r	.	.
4c	.	4e-	.	4e-	.	2r	.	V43
4B-	.	4d-	.	4e-	.	.	.	.
4A-	.	4c	.	4e-	.	4r	.	I
=25:|!	=25:|!	=25:|!	=25:|!	=25:|!	=25:|!	=25:|!	=25:|!	=25:|!
4AA-	p	4e-	p	4cc	p	4aaa-	.	I\\
4r	.	4r	.	4r	.	4r	.	.
4r	.	4r	.	4r	.	4r	.	.
4E-	.	4g	.	4e- 4b-	.	2r	.	V
4E-	.	4g	.	4e- 4b-	.	.	.	.
4E-	.	4g	.	4e- 4b-	.	4r	.	.
=26!|:	=26!|:	=26!|:	=26!|:	=26!|:	=26!|:	=26!|:	=26!|:	=26!|:
2r	.	2r	.	2r	.	4b-	p	V.I
.	.	.	.	.	.	4ee-	.	.
4r	.	4r	.	4r	.	4gg	.	.
!LO:TX:b:i:t=cresc.	!	!LO:TX:b:i:t=cresc.	!	!LO:TX:b:i:t=cresc.	!	!LO:TX:b:i:t=cresc.	!	!
.	.	.	.	.	.	16qqaa-/	.	.
4E-	.	4g	.	4e- 4b-	.	4gg	.	.
4E-	.	4g	.	4e- 4b-	.	4ff	.	.
4E-	.	4g	.	4e- 4b-	.	4gg	.	.
=27	=27	=27	=27	=27	=27	=27	=27	=27
2r	.	2r	.	2r	.	4b-	.	V
.	.	.	.	.	.	4dd	.	.
4r	.	4r	.	4r	.	4ff	.	.
.	.	.	.	.	.	16qqgg/	.	V[V6
4B-	.	4d	.	4b-	.	4ff	.	.
4B-	.	4d	.	4b-	.	4eeX	.	.
4B-	.	4d	.	4b-	.	4ff	.	V6]
=28	=28	=28	=28	=28	=28	=28	=28	=28
2r	.	2r	.	2r	.	4b-	.	V
.	.	.	.	.	.	4dd	.	.
4r	.	4r	.	4r	.	4ff	.	.
.	.	.	.	.	.	16qqgg/	.	V[V6
4B-	.	4d	.	4f	.	4ff	.	.
4B-	.	4d	.	4f	.	4eeX	.	.
4B-	.	4d	.	4f	.	4ff	.	V6]
=29	=29	=29	=29	=29	=29	=29	=29	=29
2r	.	2r	.	2r	.	4a	.	V/V
.	.	.	.	.	.	4cc	.	.
4r	.	4r	.	4r	.	4ff	.	.
.	.	.	.	.	.	16qqgg/	.	.
4F	.	4c	.	4a	.	4ff	.	.
4F	.	4c	.	4a	.	4eeX	.	.
4F	.	4c	.	4a	.	4ff	.	.
=30	=30	=30	=30	=30	=30	=30	=30	=30
2r	.	2r	.	2r	.	4a	.	.
.	.	.	.	.	.	4cc	.	.
4r	.	4r	.	4r	.	4ff	.	.
.	.	.	.	.	.	16qqgg/	.	.
4F	.	4c	.	4a	.	4ff	.	.
4F	.	4c	.	4a	.	4eeX	.	.
4F	.	4c	.	4a	.	4ff	.	.
=31	=31	=31	=31	=31	=31	=31	=31	=31
2r	.	2r	.	2r	.	4g	.	#iii.i
.	.	.	.	.	.	4cc	.	.
4r	.	4r	.	4r	.	4ee-	.	.
.	.	.	.	.	.	16qqff/	.	V(64)
4G	.	4c	.	4g	.	4ee-	.	.
4G	.	4c	.	4g	.	4dd	.	.
4G	.	4c	.	4g	.	4ee-	.	.
=32	=32	=32	=32	=32	=32	=32	=32	=32
!	!LO:DY:a	!	!	!	!	!	!	!
4G	f f	4c	.	4g	f	4g	f	.
4r	.	4r	.	4r	.	4cc	.	.
4r	.	4r	.	4r	.	4ee-	.	.
4G	.	4BX	.	4g	.	4f	.	V7
4r	.	4r	.	4r	.	4bX	.	.
4r	.	4r	.	4r	.	4dd	.	.
=33	=33	=33	=33	=33	=33	=33	=33	=33
2r	pp	2r	pp	2r	pp	4e-	pp	i[i
.	.	.	.	.	.	4g	.	.
4r	.	4r	.	4r	.	4cc	.	.
.	.	.	.	.	.	16qqdd/	.	.
4CC	.	4C	.	4c	.	4cc	.	.
4CC	.	4C	.	4c	.	4bX	.	.
4CC	.	4C	.	4c	.	4cc	.	.
=34	=34	=34	=34	=34	=34	=34	=34	=34
2r	pp	2r	pp	2r	pp	4f	pp	iv
.	.	.	.	.	.	4a-X	.	.
4r	.	4r	.	4r	.	4cc	.	.
.	.	.	.	.	.	16qqdd/	.	.
4CC	.	4F	.	4A-X	.	4cc	.	.
4CC	.	4F	.	4A-	.	4bX	.	.
4CC	.	4F	.	4A-	.	4cc	.	.
=35	=35	=35	=35	=35	=35	=35	=35	=35
2r	.	2r	.	2r	.	4e-	.	i6
.	.	.	.	.	.	4g	.	.
4r	.	4r	.	4r	.	4cc	.	.
.	.	.	.	.	.	16qqdd/	.	.
4CC	.	4E-	.	4G	.	4cc	.	.
4CC	.	4E-	.	4G	.	4bX	.	.
4CC	.	4E-	.	4G	.	4cc	.	.
=36	=36	=36	=36	=36	=36	=36	=36	=36
2r	.	2r	.	2r	.	4e-	.	i6]
.	.	.	.	.	.	4g	.	.
4r	.	4r	.	4r	.	4cc	.	.
4GG	.	4BBX	.	4G	.	4f	.	V7
4G	.	4G	.	4BX	.	4bX	.	.
4G	.	4G	.	4B	.	4dd	.	.
=37	=37	=37	=37	=37	=37	=37	=37	=37
2r	.	2r	.	2r	.	4g	.	i-II.ii
.	.	.	.	.	.	4cc	.	.
4r	.	4r	.	4r	.	4ee-	.	.
!LO:TX:b:i:t=cresc.	!	!LO:TX:b:i:t=cresc.	!	!LO:TX:b:i:t=cresc.	!	!LO:TX:b:i:t=cresc.	!	!
.	.	.	.	.	.	16qqff/	.	.
4C	.	4G	.	4c	.	4ee-	.	.
4C	.	4c	.	4g	.	4dd	.	.
4C	.	4c	.	4g	.	4ee-	.	.
=38	=38	=38	=38	=38	=38	=38	=38	=38
2r	.	2r	.	2r	.	4a	.	V
.	.	.	.	.	.	4cc	.	.
4r	.	4r	.	4r	.	4ff	.	.
.	.	.	.	.	.	16qqgg/	.	.
4FF	.	4c	.	4a	.	4ff	.	.
4FF	.	4c	.	4a	.	4eeX	.	.
4FF	.	4c	.	4a	.	4ff	.	.
=39	=39	=39	=39	=39	=39	=39	=39	=39
2r	.	2r	.	2r	.	4b-	.	I
.	.	.	.	.	.	4dd	.	.
4r	.	4r	.	4r	.	4ff	.	.
.	.	.	.	.	.	16qqgg/	.	.
4BB-	.	4d	.	4b-	.	4ff	.	.
4BB-	.	4d	.	4b-	.	4eeX	.	.
4BB-	.	4d	.	4b-	.	4ff	.	.
=40	=40	=40	=40	=40	=40	=40	=40	=40
2r	.	2r	.	2r	.	4b-	.	I.V/V
.	.	.	.	.	.	4dd	.	.
4r	.	4r	.	4r	.	4ff	.	.
4EE-	.	4d-X	.	4b-	.	4b-	.	V7
4EE-	.	4d-	.	4b-	.	4dd-X	.	.
4EE-	.	4d-	.	4b-	.	4gg	.	.
=41	=41	=41	=41	=41	=41	=41	=41	=41
2r	f	2r	f	2r	f	4cc	f	I
.	.	.	.	.	.	4ee-	.	.
4r	.	4r	.	4r	.	4aa-	.	.
.	.	.	.	.	.	16qqbb-/	sf	.
4AA-	.	4c	.	4e-	.	4aa-	.	.
4AA-	.	4c	.	4e-	.	4gg	.	.
4AA-	.	4c	.	4e-	.	4aa-	.	.
=42	=42	=42	=42	=42	=42	=42	=42	=42
2r	.	2r	.	2r	.	4ee-	.	V
.	.	.	.	.	.	4gg	.	.
4r	.	4r	.	4r	.	4bb-	.	.
.	.	.	.	.	.	16qqccc/	sf	.
4EE-	.	4G	.	4e-	.	4bb-	.	.
4EE-	.	4G	.	4e-	.	4aa	.	.
4EE-	.	4G	.	4e-	.	4bb-	.	.
=43	=43	=43	=43	=43	=43	=43	=43	=43
2r	.	2r	.	2r	.	4ee-	.	I
.	.	.	.	.	.	4aa-X	.	.
4r	.	4r	.	4r	.	4ccc	.	.
.	.	.	.	.	.	16qqddd-/	sf	.
4A-	.	4c	.	4e-	.	4ccc	.	.
4A-	.	4c	.	4e-	.	4bb-	.	.
4A-	.	4c	.	4e-	.	4ccc	.	.
=44	=44	=44	=44	=44	=44	=44	=44	=44
2r	.	2r	.	2r	.	4gg	.	V
.	.	.	.	.	.	4bb-	.	.
4r	.	4r	.	4r	.	4eee-	.	.
.	.	.	.	.	.	16qqfff/	sf	.
4E-	.	4G	.	4e-	.	4eee-	.	.
4E-	.	4G	.	4e-	.	4ddd	.	.
4E-	.	4G	.	4e-	.	4eee-	.	.
=45	=45	=45	=45	=45	=45	=45	=45	=45
2r	f	2r	f	2r	f	4cc	f	I
.	.	.	.	.	.	4ee-	.	.
4r	.	4r	.	4r	.	4aa-	.	.
.	.	.	.	.	.	16qqbb-/	sf	.
4A-	.	4c	.	4e-	.	4aa-	.	.
4A-	.	4c	.	4e-	.	4gg	.	.
4A-	.	4c	.	4e-	.	4aa-	.	.
=46	=46	=46	=46	=46	=46	=46	=46	=46
2r	.	2r	.	2r	.	4ee-	.	V
.	.	.	.	.	.	4gg	.	.
4r	.	4r	.	4r	.	4bb-	.	.
.	.	.	.	.	.	16qqccc/	sf	.
4E-	.	4e-	.	4g	.	4bb-	.	.
4E-	.	4e-	.	4g	.	4aa	.	.
4E-	.	4e-	.	4g	.	4bb-	.	.
=47	=47	=47	=47	=47	=47	=47	=47	=47
2r	ff	2r	ff	2r	ff	4bb-	ff	.
.	.	.	.	.	.	4ccc	.	.
4r	.	4r	.	4r	.	4ddd-	.	.
4E-	.	4B-	.	4g 4ee-	.	4eee-	.	.
4E-	.	4B-	.	4g 4ee-	.	4fff	.	.
4E-	.	4B-	.	4g 4ee-	.	4ggg	.	.
=48	=48	=48	=48	=48	=48	=48	=48	=48
4A-	p	4c	p	4a- 4ee-	p	4aaa-	.	I\\
4r	.	4r	.	4r	.	4r	.	.
4r	.	4r	.	4r	.	4r	.	.
4e-	.	4g	.	4b-	.	2r	.	V
4e-	.	4g	.	4b-	.	.	.	.
4e-	.	4g	.	4b-	.	4r	.	.
=49:|!	=49:|!	=49:|!	=49:|!	=49:|!	=49:|!	=49:|!	=49:|!	=49:|!
4AA-	.	4c	.	4a- 4ee-	.	4aaa-	.	I\\
4r	.	4r	.	4r	.	4r	.	.
4r	.	4r	.	4r	.	4r	.	.
!LO:TX:b:i:t=dim.	!	!LO:TX:b:i:t=dim.	!	!LO:TX:b:i:t=dim.	!	!	!	!
4e-	.	4b-	.	4dd-	.	2r	.	V7
4e-	.	4b-	.	4dd-	.	.	.	.
4e-	.	4b-	.	4dd-	.	4r	.	.
=50	=50	=50	=50	=50	=50	=50	=50	=50
!	!	!	!	!	!	!LO:TX:b:i:t=dim.	!	!
2r	.	2r	.	2r	.	4b-	.	.
.	.	.	.	.	.	4cc	.	.
4r	.	4r	.	4r	.	4dd-	.	.
4e-	.	4b-	.	4dd-	.	4ee-	.	.
4e-	.	4b-	.	4dd-	.	4ff	.	.
4e-	.	4b-	.	4dd-	.	4gg	.	.
=51	=51	=51	=51	=51	=51	=51	=51	=51
!	!LO:DY:a	!	!	!	!	!	!	!
4C	p p	4C	.	4c	p	4aa-	p	I
4D-	.	4D-	.	4d-	.	4r	.	.
4E-	.	4E-	.	4e-	.	4r	.	.
4F	.	4F	.	4f	.	2r	.	.
4G	.	4G	.	4g	.	.	.	.
4A-	.	4A-	.	4a-	.	4r	.	.
=52	=52	=52	=52	=52	=52	=52	=52	=52
!	!LO:DY:a	!	!LO:DY:a	!	!LO:DY:a	!	!	!
2.BB-'	p p	2.BB-'	p	2.B-'	p	2.B-'	.	@none
2.C'	.	2.C'	.	2.c'	.	2.c'	.	.
=53	=53	=53	=53	=53	=53	=53	=53	=53
!LO:TX:b:i:t=ritar        -        dan        -        do	!	!LO:TX:b:i:t=ritar        -        dan        -        do	!	!LO:TX:b:i:t=ritar        -        dan        -        do	!	!LO:TX:b:i:t=ritar        -        dan        -        do	!	!
2.DD-'	.	2.D-'	.	2.d-'	.	2.d-'	.	.
2.EE-'	.	2.E-'	.	2.e-'	.	2.e-'	.	.
=54	=54	=54	=54	=54	=54	=54	=54	=54
2.FF'	.	2.F'	.	2.f'	.	2.f'	.	.
2.GG'	.	2.G'	.	2.g'	.	2.g'	.	.
=55	=55	=55	=55	=55	=55	=55	=55	=55
2.AA-'	.	2.A-'	.	2.a-'	.	2.a-'	.	.
2.BB-'	.	2.B-'	.	2.B-'	.	[2.b-	.	.
=56	=56	=56	=56	=56	=56	=56	=56	=56
!	!	!	!	!	!	!LO:TX:a:B:t=L'istesso tempo	!	!
1.r	.	1.r	.	1.r	.	2.b-_	.	.
.	.	.	.	.	.	2.b-_	.	.
=57	=57	=57	=57	=57	=57	=57	=57	=57
1.r	.	1.r	.	1.r	.	4b-]	.	.
.	.	.	.	.	.	(4a	.	.
.	.	.	.	.	.	4a-X	.	.
.	.	.	.	.	.	4g	.	.
.	.	.	.	.	.	4g-X	.	.
.	.	.	.	.	.	8fL	.	.
.	.	.	.	.	.	8f-XJ)	.	.
=58	=58	=58	=58	=58	=58	=58	=58	=58
*M2/2	*	*M2/2	*	*M2/2	*	*M2/2	*	*
*met(c|)	*	*met(c|)	*	*met(c|)	*	*met(c|)	*	*
!	!LO:DY:a	!	!LO:DY:a	!	!LO:DY:a	!	!	!
4EE-'	f f	4E-'	f	4e-'	f	4e-'	.	V
4EE-'	.	4E-'	.	4e-'	.	4e-'	.	.
4FF-X'	.	4F-X'	.	4f-X'	.	4f-X'	.	.bVI
4r	.	4r	.	4r	.	4r	.	.
=59	=59	=59	=59	=59	=59	=59	=59	=59
1r	.	1r	.	1r	.	1r	.	.
=60	=60	=60	=60	=60	=60	=60	=60	=60
*M6/4	*	*M6/4	*	*M6/4	*	*M6/4	*	*
1.r	.	1.r	.	1.r	.	[2.dd-	p	@none
.	.	.	.	.	.	2.dd-_	.	.
=61	=61	=61	=61	=61	=61	=61	=61	=61
1.r	.	1.r	.	1.r	.	4dd-]	.	.
.	.	.	.	.	.	(4cc	.	.
.	.	.	.	.	.	8b-L	.	.
.	.	.	.	.	.	8b--XJ	.	.
.	.	.	.	.	.	8a-L	.	.
.	.	.	.	.	.	8g	.	.
.	.	.	.	.	.	8g-X	.	.
.	.	.	.	.	.	8fJ	.	.
.	.	.	.	.	.	4f-X)	.	.
=62	=62	=62	=62	=62	=62	=62	=62	=62
*M2/2	*	*M2/2	*	*M2/2	*	*M2/2	*	*
*met(c|)	*	*met(c|)	*	*met(c|)	*	*met(c|)	*	*
!	!LO:DY:a	!	!LO:DY:a	!	!LO:DY:a	!	!	!
4EE-'	f f	4E-'	f	4e-'	f	4e-'	.	V
4EE-'	.	4E-'	.	4e-'	.	4e-'	.	.
4FF-X'	.	4F-X'	.	4f-X'	.	4f-X'	.	.bVI
4r	.	4r	.	4r	.	4r	.	.
=63	=63	=63	=63	=63	=63	=63	=63	=63
1r	.	1r	.	1r	.	1r	.	.
=64	=64	=64	=64	=64	=64	=64	=64	=64
*M6/4	*	*M6/4	*	*M6/4	*	*M6/4	*	*
1.r	.	1.r	.	1.r	.	[2.ff-X	p	@none
.	.	.	.	.	.	2.ff-_	.	.
=65	=65	=65	=65	=65	=65	=65	=65	=65
1.r	.	1.r	.	1.r	.	(8ff-L]	.	.
.	.	.	.	.	.	8ee-	.	.
.	.	.	.	.	.	8dd-	.	.
.	.	.	.	.	.	8cc-X	.	.
.	.	.	.	.	.	8b-	.	.
.	.	.	.	.	.	8b--XJ	.	.
.	.	.	.	.	.	8a-L	.	.
.	.	.	.	.	.	8g	.	.
.	.	.	.	.	.	8g-X	.	.
.	.	.	.	.	.	8fJ	.	.
.	.	.	.	.	.	4f-X)	.	.
=66||	=66||	=66||	=66||	=66||	=66||	=66||	=66||	=66||
*k[b-e-a-d-g-c-f-]	*	*k[b-e-a-d-g-c-f-]	*	*k[b-e-a-d-g-c-f-]	*	*k[b-e-a-d-g-c-f-]	*	*
*C-:	*	*C-:	*	*C-:	*	*C-:	*	*
*M2/2	*	*M2/2	*	*M2/2	*	*M2/2	*	*
*met(c|)	*	*met(c|)	*	*met(c|)	*	*met(c|)	*	*
4A-'	pp	(2E-	pp	(2.c-	pp	(4e-	pp	i
4AA-'	.	.	.	.	.	8d-L	.	.
.	.	.	.	.	.	8e-J)	.	.
4r	.	[2D-)	.	.	.	4f-'	.	iv7
4DD-'	.	.	.	8d-L	.	4r	.	.
.	.	.	.	8c-J)	.	.	.	.
=67	=67	=67	=67	=67	=67	=67	=67	=67
4GG-'	.	(2D-]	.	(2.B-	.	(4d-	.	VII(9)
4G-'	.	.	.	.	.	8c-L	.	.
.	.	.	.	.	.	8d-J)	.	.
4r	.	2C-)	.	.	.	4e-'	.	III7
4C-'	.	.	.	8c-L	.	4r	.	.
.	.	.	.	8B-J)	.	.	.	.
=68	=68	=68	=68	=68	=68	=68	=68	=68
4F-	.	4C-	.	4A-'	.	(4c-	.	VI(9)
4FF-	.	4C-	.	4A-'	.	8B-L	.	.
.	.	.	.	.	.	8c-J)	.	.
4FF-	.	4BB-	.	4A-'	.	4d-'	.	iv6
4FF-	.	4BB-	.	4A-'	.	4d-'	.	.
=69	=69	=69	=69	=69	=69	=69	=69	=69
4EE-	.	4BB-	.	4G	.	4e-	.	V
4r	.	4r	.	(8B-L	.	4r	.	.
.	.	.	.	8c-J)	.	.	.	.
2r	.	2r	.	4d-'	.	2r	.	V7
.	.	.	.	4B-'	.	.	.	.
=70	=70	=70	=70	=70	=70	=70	=70	=70
4A-	.	(2E-	.	1c-	.	(4e-	.	i
4AA-	.	.	.	.	.	8d-L	.	.
.	.	.	.	.	.	8e-J)	.	.
4r	.	[2D-)	.	.	.	4f-'	.	iv7
4DD-	.	.	.	.	.	4r	.	.
=71	=71	=71	=71	=71	=71	=71	=71	=71
4GG-	.	(2D-]	.	(2.B-	.	(4d-	.	VII(9)
4G-	.	.	.	.	.	8c-L	.	.
.	.	.	.	.	.	8d-J)	.	.
4r	.	[2C-)	.	.	.	4e-'	.	III7
4C-	.	.	.	8c-L	.	4r	.	.
.	.	.	.	8B-J)	.	.	.	.
=72	=72	=72	=72	=72	=72	=72	=72	=72
4F-	.	4C-]	.	4A-'	.	(4c-	.	VI
4FF-	.	4D-'	.	4A-'	.	8B-L	.	iv65
.	.	.	.	.	.	8c-J)	.	.
4EE-	.	4D-'	.	4G'	.	4d-'	.	V7
4EE-	.	4E-'	.	4G'	.	4B-'	.	V
=73	=73	=73	=73	=73	=73	=73	=73	=73
4AA-	.	4E-'	.	4A-'	.	4A-'	.	i\\
*clefC4	*	*	*	*	*	*	*	*
(8B-L	.	(8BB-L	.	4r	.	4r	.	@none
8c-J)	.	8C-J)	.	.	.	.	.	.
4d-'	.	4D-'	.	2r	.	2r	.	.
4B-'	.	4BB-'	.	.	.	.	.	.
=74	=74	=74	=74	=74	=74	=74	=74	=74
4A-'	pp	4c-'	pp	2c-	pp	(4.e-t	pp	i
!LO:TX:b:i:t=sempre	!	!LO:TX:b:i:t=sempre	!	!	!	!	!	!
4AA-'	.	4C-'	.	.	.	.	.	.
!	!	!	!	!	!	!LO:TX:b:i:t=sempre	!	!
.	.	.	.	.	.	16d-LL	.	.
.	.	.	.	.	.	16e-JJ)	.	.
!	!	!	!	!LO:TX:b:i:t=sempre	!	!	!	!
4r	.	4r	.	4dd-'	.	4f-'	.	iv
4DD-'	.	4F-'	.	4d-'	.	4ff-'	.	.
=75	=75	=75	=75	=75	=75	=75	=75	=75
4GG-	.	4B-	.	2B-	.	(4.d-T	.	VII
4G-	.	4BB-	.	.	.	.	.	.
.	.	.	.	.	.	16c-LL	.	.
.	.	.	.	.	.	16d-JJ)	.	.
4r	.	4r	.	4cc-'	.	4e-'	.	III
4C-	.	4E-	.	4c-'	.	4ee-'	.	.
=76	=76	=76	=76	=76	=76	=76	=76	=76
4F-	.	4a-	.	2A-	.	(4.c-T	.	VI
4FF-	.	4A-	.	.	.	.	.	.
.	.	.	.	.	.	16B-LL	.	.
.	.	.	.	.	.	16c-JJ)	.	.
4r	.	4r	.	4a-'	.	4d-'	.	iv6
4FF-	.	4A-	.	4A-'	.	4dd-'	.	.
=77	=77	=77	=77	=77	=77	=77	=77	=77
4E-	.	4g	.	4G	.	4e-	.	V
4EE-	.	4G	.	4g	.	4ee-	.	.
4e-	.	2r	.	4ee-	.	2r	.	.
4E-	.	.	.	4e-	.	.	.	.
=78	=78	=78	=78	=78	=78	=78	=78	=78
4A-	.	(2.c-	.	4cc-	.	(4.e-t	.	i
4AA-	.	.	.	4c-	.	.	.	.
.	.	.	.	.	.	16d-LL	.	.
.	.	.	.	.	.	16e-JJ)	.	.
4r	.	.	.	4r	.	4f-'	.	iv
4DD-	.	8d-L	.	4f-	.	4ff-'	.	.
.	.	8c-J)	.	.	.	.	.	.
=79	=79	=79	=79	=79	=79	=79	=79	=79
4GG-	.	(2.B-	.	4b-	.	(4.d-T	.	VII
4G-	.	.	.	4B-	.	.	.	.
.	.	.	.	.	.	16c-LL	.	.
.	.	.	.	.	.	16d-JJ)	.	.
4r	.	.	.	4r	.	4e-'	.	III
4C-	.	8c-L	.	4e-	.	4ee-'	.	.
.	.	8B-J)	.	.	.	.	.	.
=80	=80	=80	=80	=80	=80	=80	=80	=80
4F-	.	4A-'	.	4a-	.	(4.c-T	.	VI
4FF-	.	4A-'	.	4a-	.	.	.	.
.	.	.	.	.	.	16B-LL	.	.
.	.	.	.	.	.	16c-JJ)	.	.
4EE-	.	4G'	.	4b-	.	4d-'	.	V7
4EE-	.	4G'	.	4g	.	4B-'	.	V
=81	=81	=81	=81	=81	=81	=81	=81	=81
4AA-	.	4A-'	.	4a-	.	4A-'	.	i\\
8C-L	.	8c-L	.	4r	.	4r	.	.
8D-J	.	8d-J	.	.	.	.	.	.
4E-'	.	4e-'	.	2r	.	2r	.	.
4C-'	.	4c-'	.	.	.	.	.	.
=82	=82	=82	=82	=82	=82	=82	=82	=82
4GG-	.	(2.g-	.	(2e-	.	(4cc-	.	III.V[I6
4G-	.	.	.	.	.	8b-L	.	.
.	.	.	.	.	.	8cc-J)	.	.
4r	.	.	.	4f-)	.	4dd-'	.	V2
4G-	.	4dd-)	.	4r	.	4r	.	.
=83	=83	=83	=83	=83	=83	=83	=83	=83
4GG-	.	(2e-	.	(2.g-	.	(4cc-	.	I6
4G-	.	.	.	.	.	4gg-)	.	.
4r	.	4d-)	.	.	.	4ff-'	.	V43
4G-	.	4r	.	4ff-)	.	4r	.	.
=84	=84	=84	=84	=84	=84	=84	=84	=84
4GG-	.	(2.g-	.	(2e-	.	(4cc-	.	I6
4G-	.	.	.	.	.	8b-L	.	.
.	.	.	.	.	.	8cc-J)	.	.
4r	.	.	.	4f-)	.	4dd-'	.	V43
4G-	.	4dd-)	.	4r	.	4r	.	.
=85	=85	=85	=85	=85	=85	=85	=85	=85
4GG-	.	(2e-	.	(2.g-	.	(4cc-	.	I6
4G-	.	.	.	.	.	4gg-)	.	.
4r	.	4d-)	.	.	.	4ff-'	.	V43
4GG-	.	4r	.	4ff-)	.	4r	.	V43]
=86	=86	=86	=86	=86	=86	=86	=86	=86
4AA-	.	(2c-	.	(2e-	.	(4a-	.	i.i[i6
4A-	.	.	.	.	.	8gL	.	.
.	.	.	.	.	.	8a-J)	.	.
4r	.	4d-)	.	4f-)	.	4b--X'	.	.bII6
4A-	.	4r	.	4r	.	4r	.	.
=87	=87	=87	=87	=87	=87	=87	=87	=87
4AA-	.	(2c-	.	(2e-	.	(4a-	.	i6
4A-	.	.	.	.	.	8gL	.	.
.	.	.	.	.	.	8a-J)	.	.
4r	.	4d-)	.	4f-)	.	4b-'	.	iio6
4A-	.	4r	.	4r	.	4r	.	.
=88	=88	=88	=88	=88	=88	=88	=88	=88
4AA-	.	2c-	.	(2e-	.	(4a-	.	i6]
4A-	.	.	.	.	.	8gL	.	.
.	.	.	.	.	.	8a-J)	.	.
4D-	.	4F-'	.	4f-')	.	4b--X'	.	.bII6
4D-	.	4F-'	.	4d-'	.	4b--'	.	.
=89	=89	=89	=89	=89	=89	=89	=89	=89
4E-	.	4E-	.	(4c-	.	(4a-	.	V(64)
4E-	.	4e-	.	4B-)	.	4g)	.	V
4AA-	.	4e-	.	4c-'	.	4a-'	.	i\\
4r	.	4r	.	4r	.	4r	.	.
=90	=90	=90	=90	=90	=90	=90	=90	=90
4GG-	p <	(2c-	p <	(2e-	p <	(4.cc-T	p <	III.V[I
4G-	.	.	.	.	.	.	.	.
.	.	.	.	.	.	16b-LL	.	.
.	.	.	.	.	.	16cc-JJ)	.	.
4r	[ >	4B-	[ >	4f-	[ >	4dd-'	[ >	viio
4G-	]]	4f-)	]]	4dd-)	]]	4ddd-'	]]	.
=91	=91	=91	=91	=91	=91	=91	=91	=91
4GG-	<	(2c-	<	(2e-	<	(4cc-T	<	I
4G-	.	.	.	.	.	4gg-)	.	.
4r	[ >	4d-	[ >	4b-	[ >	4ff-'	[ >	viio6
4G-	]]	4b-)	]]	4dd-)	>]	4fff-'	]]	.
=92	=92	=92	=92	=92	=92	=92	=92	=92
4GG-	<	(2c-	<	(2e-	] <	(4cc-T	<	I
4G-	.	.	.	.	.	8b-L	.	.
.	.	.	.	.	.	8cc-J)	.	.
4r	[ >	4B-	[ >	4f-	[ >	4dd-'	[ >	viio
4G-	]]	4f-)	]]	4dd-)	]]	4ddd-'	]]	.
=93	=93	=93	=93	=93	=93	=93	=93	=93
4GG-	<	(2c-	<	(2e-	<	(4dd-T	<	I
4G-	.	.	.	.	.	4gg-)	.	.
4r	[ >	4d-	[ >	4b-	[ >	4ff-'	[ >	viio]
4GG-	]]	4b-)	]]	4dd-)	]]	4fff-'	]]	.
=94	=94	=94	=94	=94	=94	=94	=94	=94
!	!	!	!	!	!	!LO:TX:b:i:t=cresc.	!	!
4AA-	.	(2c-	.	(2e-	.	(4a-T	.	i.i[i6
!LO:TX:b:i:t=cresc.	!	!	!	!	!	!	!	!
4A-	.	.	.	.	.	8gL	.	.
.	.	.	.	.	.	8a-J)	.	.
!	!	!LO:TX:b:i:t=cresc.	!	!LO:TX:b:i:t=cresc.	!	!	!	!
4r	.	4d-)	.	4f-)	.	4b--X'	.	.bII6
4A-	.	4r	.	4r	.	4r	.	.
=95	=95	=95	=95	=95	=95	=95	=95	=95
4AA-	.	(2c-	.	(2e-	.	(4b-t	.	i6
4A-	.	.	.	.	.	8gL	.	.
.	.	.	.	.	.	8a-J)	.	.
4r	.	4d-)	.	4f-)	.	4b-'	.	iio6
4A-	.	4r	.	4r	.	4r	.	.
=96	=96	=96	=96	=96	=96	=96	=96	=96
4AA-	f	2c-	f	(2e-	f	(4b-t	f	i6]
4A-	.	.	.	.	.	8gL	.	.
.	.	.	.	.	.	8a-J)	.	.
4D-	.	4F-'	.	4f-')	.	4b--X'	.	.bII6
4D-	.	4F-'	.	4d-'	.	4b--'	.	.
=97	=97	=97	=97	=97	=97	=97	=97	=97
4E-	.	4E-	.	(4c-	.	(4a-	.	V(64)
4E-	.	4e-	.	4B-)	.	4g)	.	V
4AA-	.	4e-	.	4c-'	.	4a-'	.	i\\
4r	.	4r	.	4r	.	4r	.	.
=98	=98	=98	=98	=98	=98	=98	=98	=98
!	!	!	!	!	!LO:DY:a	!	!	!
4A-	pp	(4E-	pp	2r	pp pp	(2.c-	.	i
4AA-	.	8D-L	.	.	.	.	.	.
.	.	8E-J)	.	.	.	.	.	.
!	!	!	!	!LO:TX:a:i:t=pizz.	!	!	!	!
4r	.	4F-'	.	4f-	.	.	.	.
4DD-	.	4r	.	4f- 4dd-	.	8d-L	.	iv
.	.	.	.	.	.	8c-J)	.	.
=99	=99	=99	=99	=99	=99	=99	=99	=99
4GG-	.	(4D-	.	2r	.	(2.B-	.	VII
4G-	.	8C-L	.	.	.	.	.	.
.	.	8D-J)	.	.	.	.	.	.
4r	.	4E-'	.	4e-	.	.	.	.
4C-	.	4r	.	4e- 4cc-	.	8c-L	.	III
.	.	.	.	.	.	8B-J)	.	.
=100	=100	=100	=100	=100	=100	=100	=100	=100
4F-	.	(4C-	.	2r	.	(2.A-	.	ii6
4FF-	.	8BB-L	.	.	.	.	.	.
.	.	8C-J)	.	.	.	.	.	.
4FF-	.	4D-'	.	4a-	.	.	.	.
4FF-	.	4D-'	.	4dd-	.	4B-)	.	iio64
=101	=101	=101	=101	=101	=101	=101	=101	=101
4EE-	.	4E-	.	4e- 4b-	.	4G	.	V\\
4r	.	4r	.	4r	.	4r	.	.
2r	.	2r	.	2r	.	2r	.	.
=102	=102	=102	=102	=102	=102	=102	=102	=102
4FF-	.	(4C-	.	2r	.	(2.A-	.	ii6
4FF-	.	8BB-L	.	.	.	.	.	.
.	.	8C-J)	.	.	.	.	.	.
4FF-	.	4D-'	.	4aa-	.	.	.	.
4FF-	.	4D-'	.	4ddd-	.	4B-)	.	.
=103	=103	=103	=103	=103	=103	=103	=103	=103
4EE-	.	4E-	.	4bb-	.	4G	.	V
4r	.	4r	.	4r	.	4r	.	.
2r	.	2r	.	2r	.	2r	.	.
=104	=104	=104	=104	=104	=104	=104	=104	=104
!	!	!LO:TX:b:i:t=poco ritard.	!	!LO:TX:b:i:t=poco ritard.	!	!LO:TX:b:i:t=poco ritard.	!	!
1r	.	4F-	.	(2.aa-	.	4cc-	.	VI
.	.	4f-	.	.	.	8b-L	.	.
.	.	.	.	.	.	8cc-J	.	.
.	.	4f-	.	.	.	4dd-	.	ii6
.	.	4f-	.	4bb-)	.	4dd-	.	.
=105	=105	=105	=105	=105	=105	=105	=105	=105
1r	.	4e-	.	4g 4gg	.	4ee-	.	V
.	.	4r	.	4r	.	4r	.	.
.	.	2r	.	2r	.	2r	.	.
=106	=106	=106	=106	=106	=106	=106	=106	=106
!	!	!	!LO:DY:a	!	!	!	!	!
4FF-	f	2A-	f f	2a-	.	(4cc-	f	VI
!LO:TX:b:i:t=in tempo	!	!	!	!	!	!LO:TX:b:i:t=in tempo	!	!
4F-	.	.	.	.	.	8b-L	.	.
.	.	.	.	.	.	8cc-J)	.	.
!	!	!LO:TX:b:i:t=in tempo	!	!LO:TX:b:i:t=in tempo	!	!	!	!
4FF-	.	4A-	.	4a-	.	4dd-'	.	ii6
4EE-	.	4G	.	4B- 4e-	.	4ee-'	.	V
=107	=107	=107	=107	=107	=107	=107	=107	=107
4AA-	.	4A-	.	4A- 4e-	.	4a-'	.	i\\
4r	.	4r	.	4r	.	4r	.	.
2r	.	2r	.	2r	.	2r	.	.
==	==	==	==	==	==	==	==	==
*-	*-	*-	*-	*-	*-	*-	*-	*-
!!!system-decoration: [(s1,s2,s3,s4)]
!!!YEM: <font size="8.5"/>Copyright 2002, Robert L. Jenks
